blockchains/ethereum/assets/0x5E8422345238F34275888049021821E8E08CAa1f/logo.svg

<svg fill="none" height="250" viewBox="0 0 250 250" width="250" xmlns="http://www.w3.org/2000/svg" xmlns:xlink="http://www.w3.org/1999/xlink"><clipPath id="a"><path d="m0 0h250v250h-250z"/></clipPath><g clip-path="url(#a)"><path d="m125 250c-16.872 0-33.241-3.307-48.6577-9.825-14.8874-6.297-28.2491-15.311-39.7322-26.785-11.4743-11.474-20.4879-24.845-26.78508-39.732-6.51767-15.417-9.82502-31.786-9.82502-48.658s3.30735-33.241 9.82502-48.6577c6.29718-14.8874 15.31078-28.2491 26.78508-39.7322 11.4831-11.4743 24.8448-20.4879 39.7322-26.78508 15.4167-6.51767 31.7857-9.82502 48.6577-9.82502s33.241 3.30735 48.658 9.82502c14.887 6.29718 28.249 15.31078 39.732 26.78508 11.474 11.4743 20.488 24.8448 26.785 39.7322 6.518 15.4167 9.825 31.7857 9.825 48.6577s-3.307 33.241-9.825 48.658c-6.297 14.887-15.311 28.249-26.785 39.732-11.474 11.474-24.845 20.488-39.732 26.785-15.417 6.526-31.786 9.825-48.658 9.825z" fill="#fff"/><path d="m125 243.378c65.378 0 118.377-52.999 118.377-118.377 0-65.377-52.999-118.376-118.377-118.376-65.3775 0-118.37646 52.999-118.37646 118.376 0 65.378 52.99896 118.377 118.37646 118.377z" fill="#000"/><g fill="#fff"><path d="m127.91 102.766v54.54l53.394-32.359z"/><path d="m127.91 96.6131 52.909 21.9869-12.647-20.6199 26.891-26.8909-16.07-16.0781-23.036 23.0456-28.047-45.7208z"/><path d="m122.231 157.306v-54.54l-53.3941 22.181z"/><path d="m69.322 118.6 52.909-21.9869v-64.2772l-28.0378 45.7208-23.0455-23.0456-16.0693 16.0781 26.8909 26.8821z"/><path d="m180.704 141.93-52.794 31.997v42.378l21.723-30.613 22.675 22.676 16.069-16.07-25.4-25.4z"/><path d="m122.231 173.927-52.7943-31.997 17.7274 24.968-25.4004 25.4 16.0693 16.07 22.675-22.667 21.723 30.595z"/></g></g></svg>

<svg width="250" height="250" viewBox="0 0 250 250" fill="none" xmlns="http://www.w3.org/2000/svg">
<g clip-path="url(#clip0_48_13174)">
<path d="M125 250C108.128 250 91.759 246.693 76.3423 240.175C61.4549 233.878 48.0932 224.864 36.6101 213.39C25.1358 201.916 16.1222 188.545 9.82502 173.658C3.30735 158.241 0 141.872 0 125C0 108.128 3.30735 91.759 9.82502 76.3423C16.1222 61.4549 25.1358 48.0932 36.6101 36.6101C48.0932 25.1358 61.4549 16.1222 76.3423 9.82502C91.759 3.30735 108.128 0 125 0C141.872 0 158.241 3.30735 173.658 9.82502C188.545 16.1222 201.907 25.1358 213.39 36.6101C224.864 48.0844 233.878 61.4549 240.175 76.3423C246.693 91.759 250 108.128 250 125C250 141.872 246.693 158.241 240.175 173.658C233.878 188.545 224.864 201.907 213.39 213.39C201.916 224.864 188.545 233.878 173.658 240.175C158.241 246.701 141.872 250 125 250Z" fill="white"/>
<path d="M125 243.378C190.378 243.378 243.377 190.379 243.377 125.001C243.377 59.624 190.378 6.625 125 6.625C59.6225 6.625 6.62354 59.624 6.62354 125.001C6.62354 190.379 59.6225 243.378 125 243.378Z" fill="black"/>
<path d="M127.91 102.766V157.306L181.304 124.947L127.91 102.766Z" fill="white"/>
<path d="M127.91 96.6131L180.819 118.6L168.172 97.9801L195.063 71.0892L178.993 55.0111L155.957 78.0567L127.91 32.3359V96.6131Z" fill="white"/>
<path d="M122.231 157.306V102.766L68.8369 124.947L122.231 157.306Z" fill="white"/>
<path d="M69.322 118.6L122.231 96.6131V32.3359L94.1932 78.0567L71.1477 55.0111L55.0784 71.0892L81.9693 97.9713L69.322 118.6Z" fill="white"/>
<path d="M180.704 141.93L127.91 173.927V216.305L149.633 185.692L172.308 208.368L188.377 192.298L162.977 166.898L180.704 141.93Z" fill="white"/>
<path d="M122.231 173.927L69.4367 141.93L87.1641 166.898L61.7637 192.298L77.833 208.368L100.508 185.701L122.231 216.296V173.927Z" fill="white"/>
</g>
<defs>
<clipPath id="clip0_48_13174">
<rect width="250" height="250" fill="white"/>
</clipPath>
</defs>
</svg>
